src/assets/icons/phone.svg

<svg width="20" height="20" viewBox="0 0 20 20" fill="none" xmlns="http://www.w3.org/2000/svg">
<path d="M14.3739 20C13.7283 20 13.0882 19.8859 12.4622 19.6585C9.70462 18.6567 7.14496 17.0251 5.05989 14.9401C2.97482 12.8551 1.34325 10.2954 0.341531 7.53774C0.0196306 6.65152 -0.0753655 5.73672 0.0592774 4.81863C0.185405 3.95867 0.518516 3.12382 1.02264 2.40432C1.52898 1.68165 2.20403 1.08058 2.97478 0.666105C3.7967 0.224131 4.69381 0 5.64127 0C5.93595 0 6.19063 0.20589 6.25238 0.494003L7.23336 5.0719C7.27777 5.2792 7.21406 5.49489 7.06418 5.64481L5.38796 7.32099C6.96923 10.4648 9.53506 13.0307 12.6789 14.6119L14.3551 12.9357C14.505 12.7858 14.7207 12.7222 14.928 12.7665L19.5059 13.7475C19.7941 13.8093 19.9999 14.064 19.9999 14.3586C19.9999 15.3061 19.7758 16.2032 19.3338 17.0252C18.9193 17.7959 18.3182 18.471 17.5955 18.9773C16.8761 19.4814 16.0412 19.8145 15.1812 19.9407C14.9118 19.9802 14.6423 20 14.3739 20ZM5.14192 1.27729C3.89217 1.41525 2.78292 2.07031 2.0463 3.12163C1.21798 4.30381 1.02482 5.75785 1.51637 7.111C3.44222 12.4126 7.58741 16.5578 12.889 18.4836C14.2421 18.9752 15.6961 18.782 16.8784 17.9537C17.9297 17.2171 18.5847 16.1078 18.7227 14.8581L14.9986 14.06L13.248 15.8106C13.0618 15.9969 12.7787 16.0464 12.5404 15.9343C8.82216 14.1875 5.81244 11.1778 4.06564 7.45962C3.95365 7.22123 4.0031 6.93819 4.18938 6.75195L5.93993 5.0014L5.14192 1.27729Z" fill="#306199"/>
</svg>

<svg xmlns="http://www.w3.org/2000/svg" width="20" height="20" fill="none"><path fill="#306199" d="M14.374 20a5.573 5.573 0 0 1-1.912-.341A20.386 20.386 0 0 1 5.06 14.94 20.383 20.383 0 0 1 .342 7.538a5.532 5.532 0 0 1-.283-2.72A5.663 5.663 0 0 1 2.975.667 5.57 5.57 0 0 1 5.64 0c.295 0 .55.206.611.494l.981 4.578a.625.625 0 0 1-.169.573L5.388 7.32a16.451 16.451 0 0 0 7.29 7.29l1.677-1.675a.625.625 0 0 1 .573-.17l4.578.982a.625.625 0 0 1 .494.61 5.57 5.57 0 0 1-.666 2.667 5.663 5.663 0 0 1-4.153 2.915c-.27.04-.539.06-.807.06ZM5.142 1.277a4.329 4.329 0 0 0-3.096 1.845 4.306 4.306 0 0 0-.53 3.989A18.956 18.956 0 0 0 12.89 18.484a4.306 4.306 0 0 0 3.99-.53 4.33 4.33 0 0 0 1.844-3.096l-3.724-.798-1.751 1.75a.625.625 0 0 1-.708.124A17.697 17.697 0 0 1 4.066 7.46a.625.625 0 0 1 .123-.708l1.75-1.75-.797-3.725Z"/></svg>
